X:1
T:Under the Greenwood Tree
T:Carl Henze (1872 - 1946)
%%score { ( 1 2 ) ( 3 4 ) }
L:1/8
Q:1/4=92
M:4/4
K:G
V:1 treble-8 nm="Guitare classique"
V:2 treble-8 
V:3 tab stafflines=6 strings=E2,A2,D3,G3,B3,E4 nostems nm="Guitare classique [Tablature]"
V:4 tab stafflines=6 strings=E2,A2,D3,G3,B3,E4 nostems 
V:1
"_""^Andante espressivo" !4!g2 !2!fe g2 fe | !4!g4 !3!f4 | !3!f2 e!4!^d f2 ed | f4 e4 | %4
 !2!g2 !1!f!2!g"^₵4" !2!a2 !4!b>!4!c' | !3!b4 !3!g4 | !3!gfe!4!^d !3!g"^rit."!2!fe!4!d | %7
 [GBe-]4 e4 ||[K:E]"^a tempo" e3 !3!f !3!g!1!f!3!g!4!a | !4!b4 !3!g3 !4!a | %10
 !4!f3 e !2![Bd]!4!a!2!g!1!^^f | !2!g4 e3 !3!f | !3!gggg !3!g!1!f!3!g!4!a | !4!b4 !3!g3 !4!a | %14
 !4!f3 e !2![Bd]!4!a!3!g!1!f | !1![GBe-]4 e4 ||[K:G] g2 fe g2 fe | g4 f4 | f2 e^d f2 ed | f4 e4 | %20
 g2 fg"^₵4" a2 b>c' | b4 g4 | gfe^d g"^poco rit."fed | [GBe]4 e'4 |] %24
V:2
 E,[GB] z2 E,[GB] z2 | A,!2!!1![Ac] z [Ac] A,[Ac] z [Ac] | !1!B,!2![AB] z2 B,[AB] z2 | %3
 E,[GB] z [GB] E,[GB] z [GB] | E,[GB] z2 [FB^d][FBd] z2 | E,[GB] z [GB] E,[GB] z [GB] | %6
 A,4 !1!B,4 | E,[GB] z [GB] E,4 ||[K:E] E,B!1!G z E,4 | E,BE,B E,BE, z | !2!B,B!1!!3![DA] z F2 z2 | %11
 E,BE,B E,B!1!G z | E,4 E,4 | E,BE,B E,BE, z | !2!B,B!1!!3![DA] z F2 z2 | %15
 !arpeggio!E,A"_"GF !arpeggio!!2!!3!!1![E,B,EG]4 ||[K:G] E,[GB] z2 E,[GB] z2 | %17
 A,[Ac] z [Ac] A,[Ac] z [Ac] | B,[AB] z2 B,[AB] z2 | E,[GB] z [GB] E,[GB] z [GB] | %20
 E,[GB] z2 [FB^d][FBd] z2 | E,[GB] z [GB] E,[GB] z [GB] | A,4 B,4 | E,[GB] z"_" [GB] E,4 |] %24
V:3
 !1!G2 !1!F !1!E !1!G2 !1!F !1!E | !1!G4 !1!F4 | !1!F2 !1!E !2!^D !1!F2 !1!E !2!D | !1!F4 !1!E4 | %4
 !1!G2 !1!F !1!G"^₵4" !1!A2 !1!B3/2 !1!c/ | !1!B4 !1!G4 | %6
 !1!G !1!F !1!E !2!^D !1!G !1!F !1!E !2!D | [!3!G,!2!B,!1!E-]4 !1!E4 || %8
[K:E] !1!E3 !1!F !1!G !1!F !1!G !1!A | !1!B4 !1!G3 !1!A | !1!F3 !1!E [!3!B,!2!D] !1!A !1!G !1!^^F | %11
 !1!G4 !1!E3 !1!F | !1!G !1!G !1!G !1!G !1!G !1!F !1!G !1!A | !1!B4 !1!G3 !1!A | %14
 !1!F3 !1!E [!3!B,!2!D] !1!A !1!G !1!F | [!3!G,!2!B,!1!E-]4 !1!E4 || %16
[K:G] !1!G2 !1!F !1!E !1!G2 !1!F !1!E | !1!G4 !1!F4 | !1!F2 !1!E !2!^D !1!F2 !1!E !2!D | %19
 !1!F4 !1!E4 | !1!G2 !1!F !1!G !1!A2 !1!B3/2 !1!c/ | !1!B4 !1!G4 | %22
 !1!G !1!F !1!E !2!^D !1!G !1!F !1!E !2!D | [!3!G,!2!B,!1!E]4 !1!e4 |] %24
V:4
 !6!E,, [!3!G,!2!B,] x2 !6!E,, [!3!G,!2!B,] x2 | %1
 !5!A,, [!3!A,!2!C] x [!3!A,!2!C] !5!A,, [!3!A,!2!C] x [!3!A,!2!C] | %2
 !5!B,, [!3!A,!2!B,] x2 !5!B,, [!3!A,!2!B,] x2 | %3
 !6!E,, [!3!G,!2!B,] x [!3!G,!2!B,] !6!E,, [!3!G,!2!B,] x [!3!G,!2!B,] | %4
 !6!E,, [!3!G,!2!B,] x2 [!4!F,!3!B,!2!^D] [!4!F,!3!B,!2!D] x2 | %5
 !6!E,, [!3!G,!2!B,] x [!3!G,!2!B,] !6!E,, [!3!G,!2!B,] x [!3!G,!2!B,] | !5!A,,4 !5!B,,4 | %7
 !6!E,, [!3!G,!2!B,] x [!3!G,!2!B,] !6!E,,4 ||[K:E] !6!E,, !2!B, !3!G, x !6!E,,4 | %9
 !6!E,, !2!B, !6!E,, !2!B, !6!E,, !2!B, !6!E,, x | !5!B,, !2!B, [!4!D,!3!A,] x !4!F,2 x2 | %11
 !6!E,, !2!B, !6!E,, !2!B, !6!E,, !2!B, !3!G, x | !6!E,,4 !6!E,,4 | %13
 !6!E,, !2!B, !6!E,, !2!B, !6!E,, !2!B, !6!E,, x | !5!B,, !2!B, [!4!D,!3!A,] x !4!F,2 x2 | %15
 !6!E,, !3!A, !3!G, !4!F, [!6!E,,!5!B,,!4!E,!3!G,]4 || %16
[K:G] !6!E,, [!3!G,!2!B,] x2 !6!E,, [!3!G,!2!B,] x2 | %17
 !5!A,, [!3!A,!2!C] x [!3!A,!2!C] !5!A,, [!3!A,!2!C] x [!3!A,!2!C] | %18
 !5!B,, [!3!A,!2!B,] x2 !5!B,, [!3!A,!2!B,] x2 | %19
 !6!E,, [!3!G,!2!B,] x [!3!G,!2!B,] !6!E,, [!3!G,!2!B,] x [!3!G,!2!B,] | %20
 !6!E,, [!3!G,!2!B,] x2 [!4!F,!3!B,!2!^D] [!4!F,!3!B,!2!D] x2 | %21
 !6!E,, [!3!G,!2!B,] x [!3!G,!2!B,] !6!E,, [!3!G,!2!B,] x [!3!G,!2!B,] | !5!A,,4 !5!B,,4 | %23
 !6!E,, [!3!G,!2!B,] x [!3!G,!2!B,] !6!E,,4 |] %24

